!!!SOCIAL_FUNCTION:	songs for the entertainment of children
!!!PDT:	1913
!!!OTL: No_179_Song_of_the_Game_of_Silence.krn
!!!REG: Great_Lakes
!!!LANG: Non-Tone
!!!LING_GROUP: Algonquin
**kern
*staff1
*clefF4
*k[b-e-]
*M2/4
16d\
=1
4f\
8.f\L
16d\Jk
=2
4f\
4f\
=3
4d\
4f\
=4
2B-\
=5
4d\
8.B-\L
16B-\Jk
=6
4.c\
8B-\
=7
4..B-\
16c\
=8
4..B-\
16F\
=9
2B-\
=10
4B-\
4B-\
=11
4B-\
4B-\
=12||
*M3/4
2B-\
8B-\L
8F\J
=13||
*M2/4
2B-\
=14
2B-\
=15
4f\
8f\L
8f\J
=16
4f\
8f\L
8d\J
=17
2f\
=18
2f\
=19
4B-\
4B-\
=20
4B-\
8B-\L
8F\J
=21
2B-\
=22
2B-\
=23
8B-\L
8B-\J
4B-\
=24
4B-\
8B-\L
8B-\J
=25
4B-\
8B-\L
8F\J
=26
2B-\
=27
2B-\
=28
8f\L
8f\J
4f\
=29
2f\
=30
8f\L
8d\J
4d\
=31
2d\
=32
8d\L
8B-\J
4B-\
=33
2B-\
=34
4d\
8.B-\L
16B-\Jk
=35||
*M3/4
4c\
4c\
4B-\
=36||
*M2/4
2G\
=37
2F\
=38
4B-\
8.F\L
16F\Jk
=39||
*M3/4
4G\
4G\
4F\
=40||
*M2/4
2D\
=41
2BB-/
=42
4d\
4d\
=43
4c\
4B-\
=44
2c\
=45
2c\
=46
4d\
8d\L
8d\J
=47
4d\
4d\
=48
4d\
8d\L
8d\J
=49
4c\
4B-\
=50
2c\
=51
2c\
=52
8c\L
8c\J
4c\
=53
8c\L
8F\J
4F\
=54
8c\L
8c\J
4c\
=55
8c\L
8F\J
4F\
=56
4f\
(16f\LK
8.c\J)
=57
4c\
8.c\L
16c\Jk
=58
4c\
4F\
=59
4f\
(16f\LK
8.c\J)
=60
4c\
8.c\L
16c\Jk
=61
4c\
4F\
=62
4c\
4c\
=63
8e-\L
8c\J
4B-\
=64
4c\
4c\
=65
8e-\L
8c\J
4B-\
=66
4f`\
4r
==
*-
